!!!COM:	la Rue, Pierre de
!!!CDT:	~1452///-1518/11/20
!!!OPR:	Missa Conceptio tua
!!!ONM:	2
!!!OTL:	Gloria
!!!AGN:	Mass; Gloria
!!!SCT:	Rue1006b
!!!SCA:	Rue1006b
!!!voices-OPR:	5
!!!voices:	5
**kern	**kern	**kern	**kern	**kern
*Ivox	*Ivox	*Ivox	*Ivox	*Ivox
*I"Bassus	*I"Tenor2	*I"Tenor1	*I"Contra	*I"Discantus
*I'B	*I'T2	*I'T1	*I'C	*I'D
*staff5	*staff4	*staff3	*staff2	*staff1
*>[A,B]	*>[A,B]	*>[A,B]	*>[A,B]	*>[A,B]
*>A	*>A	*>A	*>A	*>A
*clefF4	*clefF4	*clefGv2	*clefGv2	*clefGv2
*k[]	*k[]	*k[]	*k[]	*k[]
*M3/1	*M3/1	*M3/1	*M3/1	*M3/1
*met(O)	*met(O)	*met(O)	*met(O)	*met(O)
!!section: Et in terra pax
!!!OMD: Et in terra pax
=1-	=1-	=1-	=1-	=1-
1.D	0.r	0.r	0D	0.r
2C/	.	.	.	.
1BB	.	.	1D	.
=2	=2	=2	=2	=2
1AA	0.r	0.r	2C/	0.r
.	.	.	2C/	.
2.D\	.	.	0F	.
4C/	.	.	.	.
4D\	.	.	.	.
4C/	.	.	.	.
4BB/	.	.	.	.
4AA/	.	.	.	.
=3	=3	=3	=3	=3
2GG/	0.r	0.r	2.G/	0d
1D	.	.	.	.
.	.	.	4E/	.
.	.	.	4F/	.
.	.	.	4G/	.
2C/	.	.	1A	.
1BB	.	.	.	1d
.	.	.	2G#i/	.
=4	=4	=4	=4	=4
1AA	0.r	0.r	2A/	2c\
.	.	.	2.A/	2c\
1r	.	.	.	0f
.	.	.	4G/	.
.	.	.	4F/	.
.	.	.	4E/	.
1r	.	.	2D/	.
.	.	.	2A/	.
=5	=5	=5	=5	=5
0.r	0.r	0.r	2B\	2.g\
.	.	.	1c	.
.	.	.	.	4e\
.	.	.	.	4f\
.	.	.	.	4g\
.	.	.	2A/	1a
.	.	.	1B	.
.	.	.	.	2g#i\
=6	=6	=6	=6	=6
0.r	0.r	0.r	1A	2a\
.	.	.	.	2e\
.	.	.	2r	2e\
.	.	.	2.E/	1g
.	.	.	4F/	.
.	.	.	4G/	4f\
.	.	.	4A/	4e\
=7	=7	=7	=7	=7
0.r	0.r	0.r	4B\	4d\
.	.	.	4c\	4e\
.	.	.	4d\	4f\
.	.	.	4c\	4e\
.	.	.	4B\	4d\
.	.	.	4A/	4c\
.	.	.	1A	4B\
.	.	.	.	4A/
.	.	.	.	1B
.	.	.	2G#i/	.
=8	=8	=8	=8	=8
0.r	0.r	0.r	2A/	2r
.	.	.	2c\	2.A/
.	.	.	2c\	.
.	.	.	.	4B\
.	.	.	1c	4c\
.	.	.	.	4d\
.	.	.	.	4e\
.	.	.	.	4f\
.	.	.	4B\	[2g\
.	.	.	4A/	.
=9	=9	=9	=9	=9
0.r	0.r	0.r	4G/	4g\]
.	.	.	4A/	4f\
.	.	.	4B\	4e\
.	.	.	4A/	4d\
.	.	.	4G/	2e\
.	.	.	4F/	.
.	.	.	4E/	1d
.	.	.	4D/	.
.	.	.	1E	.
.	.	.	.	2c#i\
=10	=10	=10	=10	=10
2r	2r	0D	1D	0d
1D	2F\	.	.	.
.	1F	.	1r	.
2C/	.	.	.	.
1BB	1G	1D	1r	1r
=11	=11	=11	=11	=11
1AA	0.A	1C	0.r	0.r
2D\	.	0F	.	.
2.D\	.	.	.	.
4C/	.	.	.	.
4BB/	.	.	.	.
4AA/	.	.	.	.
=12	=12	=12	=12	=12
2GG/	2r	2.G/	0.r	0.r
2.C/	1G	.	.	.
.	.	4F/	.	.
.	.	4E/	.	.
4BB/	.	4D/	.	.
2AA/	2A\	1F	.	.
1GG	1B-i	.	.	.
.	.	2E/	.	.
=13	=13	=13	=13	=13
2.FF/	2A\	0F	0.r	0.r
.	1A	.	.	.
4GG/	.	.	.	.
2AA/	.	.	.	.
2BB-i/	4G\	.	.	.
.	4F\	.	.	.
1GG	2.E\	1G	.	.
.	4D\	.	.	.
=14	=14	=14	=14	=14
0FF	2F\	[0.A	0.r	0.r
.	2F\	.	.	.
.	2F\	.	.	.
.	1F	.	.	.
2r	.	.	.	.
2AA/	4E\	.	.	.
.	4D\	.	.	.
=15	=15	=15	=15	=15
2AA/	2F\	0.A]	0.r	0.r
1AA	4E\	.	.	.
.	4D\	.	.	.
.	2C/	.	.	.
4GG/	2C/	.	.	.
4FF/	.	.	.	.
2AA/	2F\	.	.	.
4GG/	4E\	.	.	.
4FF/	4D\	.	.	.
=16	=16	=16	=16	=16
2EE/	2C/	0.r	0.r	0.r
2EE/	2.C/	.	.	.
2AA/	.	.	.	.
.	4D\	.	.	.
4GG/	4E\	.	.	.
4FF/	4F\	.	.	.
2EE/	2.G\	.	.	.
[2EE/	.	.	.	.
.	4F\	.	.	.
=17	=17	=17	=17	=17
4EE/]	4E\	0.r	0.r	0.r
4FF/	4D\	.	.	.
4GG/	1E	.	.	.
4AA/	.	.	.	.
4GG/	.	.	.	.
4FF/	.	.	.	.
4EE/	2.D\	.	.	.
4DD/	.	.	.	.
1EE	.	.	.	.
.	4C#i/	.	.	.
.	2C#i/	.	.	.
=18	=18	=18	=18	=18
0.DD	0.D	[0.A	1r	1f
.	.	.	1F	2f\
.	.	.	.	1f
.	.	.	2F/	.
.	.	.	[2F/	[2f\
=19	=19	=19	=19	=19
0.r	0.r	0.A]	2F/]	2f\]
.	.	.	1F	4e\
.	.	.	.	4d\
.	.	.	.	2c\
.	.	.	4E/	2d\
.	.	.	4D/	.
.	.	.	2C/	2e\
.	.	.	2D/	2f\
=20	=20	=20	=20	=20
1.EE	1BB	1.G	4E/	2.g\
.	.	.	4F/	.
.	.	.	4G/	.
.	.	.	4A/	4f\
.	2BB/	.	2B\	2.e\
2EE/	2.E\	2E/	1A	.
.	.	.	.	8d\L
.	.	.	.	8c\J
1EE	.	1E	.	1B
.	4D\	.	.	.
.	2BB/	.	2G#i/	.
=21	=21	=21	=21	=21
1AA	2.C/	[0.E	2A/	0A
.	.	.	2.A/	.
.	4D\	.	.	.
2AA/	2E\	.	.	.
.	.	.	4B\	.
2.AA/	2.C/	.	4c\	.
.	.	.	4A/	.
.	.	.	2c\	1r
4BB/	4D\	.	.	.
4C/	4E\	.	2c\	.
4AA/	4C/	.	.	.
=22	=22	=22	=22	=22
2.C/	2.E\	0E]	2.A/	1r
4BB/	4D\	.	4G/	.
2AA/	2C/	.	4F/	1r
.	.	.	4E/	.
2GG/	2BB/	.	1E	.
1FF	1AA	1F	.	1a
.	.	.	2D/	.
=23	=23	=23	=23	=23
[0.EE	0BB	0G	0E	2g\
.	.	.	.	1g
.	.	.	.	2g\
.	1C	1G	1E	1e
=24	=24	=24	=24	=24
0.EE]	2BB/	0E	2B\	2.e\
.	1E	.	1c	.
.	.	.	.	4f\
.	.	.	.	4g\
.	.	.	.	4e\
.	4D\	.	4B\	1a
.	4C/	.	4A/	.
.	2BB/	1E	1B	.
.	2E\	.	.	2g\
=25	=25	=25	=25	=25
0.r	2AA/	1A	1A	2e\
.	2AA/	.	.	1f
.	1C	2G/	1r	.
.	.	2E/	.	1e
.	1D	1F	1A	.
.	.	.	.	2d\
=26	=26	=26	=26	=26
1EE	2BB/	2.E/	2B\	0.e
.	1E	.	1c	.
.	.	4F/	.	.
2EE/	.	4G/	.	.
.	.	4E/	.	.
1EE	4D\	1A	4B\	.
.	4C/	.	4A/	.
.	2BB/	.	1B	.
2EE/	2E\	2G/	.	.
=27	=27	=27	=27	=27
1AA	2AA/	2F/	2c\	1r
.	2C/	2.E/	2A/	.
2GG/	2BB/	.	4B\	1r
.	.	4D/	4A/	.
2FF/	1AA	1D	4G/	.
.	.	.	4F/	.
1EE	.	.	1G	1e
.	2GG/	2C#i/	.	.
=28	=28	=28	=28	=28
[0.DD	0AA	0.D	1F	2f\
.	.	.	.	2.d\
.	.	.	1A	.
.	.	.	.	4e\
.	.	.	.	4f\
.	.	.	.	4g\
.	1r	.	2F/	2a\
.	.	.	2G/	[2g\
=29	=29	=29	=29	=29
1DD]	0.r	0.r	1A	2g\]
.	.	.	.	2f\
1r	.	.	1G	2g\
.	.	.	.	1d
1r	.	.	1D	.
.	.	.	.	[2f\
=30	=30	=30	=30	=30
0.r	0.r	0.r	1F	2f\]
.	.	.	.	1d
.	.	.	2D/	.
.	.	.	2D/	1f
.	.	.	2F/	.
.	.	.	2G/	4e\
.	.	.	.	4d\
=31	=31	=31	=31	=31
1r	1r	1r	0A	0c
1.FF	1.F	1.A	.	.
.	.	.	1r	1r
2FF/	2F\	2A/	.	.
=32	=32	=32	=32	=32
2.FF/	0F	0A	0.r	0.r
4EE/	.	.	.	.
2DD/	.	.	.	.
2.D\	.	.	.	.
.	1E	1G	.	.
4C#i/	.	.	.	.
2C#i/	.	.	.	.
=33	=33	=33	=33	=33
2D\	2D\	1F	0.r	0.r
2D\	1A	.	.	.
2D\	.	2r	.	.
2D\	2A\	2F/	.	.
2.E\	2.G\	2E/	.	.
.	.	2E/	.	.
4D\	4F\	.	.	.
=34	=34	=34	=34	=34
4C/	4E\	2.G/	0.r	0.r
4BB/	4D\	.	.	.
1C	1E	.	.	.
.	.	4F/	.	.
.	.	4G/	.	.
.	.	4F/	.	.
2D\	2.D\	4E/	.	.
.	.	4D/	.	.
1AA	.	1E	.	.
.	4C#i/	.	.	.
.	2C#i/	.	.	.
=35	=35	=35	=35	=35
0.DD	1D	0.D	1r	2r
.	.	.	.	1d
.	0AA	.	1D	.
.	.	.	.	1f
.	.	.	1F	.
.	.	.	.	[2d\
=36	=36	=36	=36	=36
0.r	0.r	0.r	1D	2d\]
.	.	.	.	1f
.	.	.	2F/	.
.	.	.	2G/	4e\
.	.	.	.	4d\
.	.	.	1A	1c
=37	=37	=37	=37	=37
2r	1.F	1.A	0.r	0.r
1D	.	.	.	.
2D\	2F\	2A/	.	.
2D\	1F	1A	.	.
2D\	.	.	.	.
=38	=38	=38	=38	=38
2.E\	2G\	2.G/	0.r	0.r
.	4E\	.	.	.
4D\	4F\	4F/	.	.
2C/	2G\	2E/	.	.
4BB/	1A	4D/	.	.
4AA/	.	4C/	.	.
1BB	.	1D	.	.
.	2G#i\	.	.	.
=39	=39	=39	=39	=39
0AA	0A	0C	1.c	2r
.	.	.	.	1e
.	.	.	2A/	2f\
1r	1r	1r	4B\	2d\
.	.	.	4c\	.
.	.	.	4d\	2f\
.	.	.	4B\	.
=40	=40	=40	=40	=40
1r	1r	1r	2c\	4e\
.	.	.	.	4f\
.	.	.	2B\	4g\
.	.	.	.	4e\
1r	2r	1r	2A/	2f\
.	1A	.	1c	1e
2r	.	2r	.	.
[2FF/	2A\	[2C/	2c\	[2a\
=41	=41	=41	=41	=41
2FF/]	2.F\	2C/]	1A	2a\]
2FF/	.	2C/	.	2a\
.	4E\	.	.	.
2GG/	2D\	2BB/	2B\	2g\
1AA	1A	1C	2E/	1e
.	.	.	1c	.
[2FF/	2A\	[2C/	.	[2a\
=42	=42	=42	=42	=42
2FF/]	2.F\	2C/]	1A	2a\]
2FF/	.	2C/	.	2a\
.	4E\	.	.	.
2GG/	2D\	2BB/	2B\	2g\
2.AA/	2.C/	2AA/	2.c\	2.e\
.	.	1C	.	.
4GG/	4D\	.	4B\	4f\
2EE/	2E\	.	2G/	4g\
.	.	.	.	4e\
=43	=43	=43	=43	=43
1DD	1AA	2D/	2.F/	4f\
.	.	.	.	4e\
.	.	1A	.	4d\
.	.	.	4G/	4c\
2FF/	1r	.	2A/	4B\
.	.	.	.	4A/
2GG/	.	4G/	2B-i\	1d
.	.	4F/	.	.
1AA	1AA	1E	1A	.
.	.	.	.	2c#i\
=44	=44	=44	=44	=44
0.DDl	0.AAl	0.Dl	0.Al	0.dl
!!LO:LB:i:g=z
=45||	=45||	=45||	=45||	=45||
*>B	*>B	*>B	*>B	*>B
*clefF4	*clefF4	*clefGv2	*clefGv2	*clefGv2
*k[]	*k[]	*k[]	*k[]	*k[]
*M2/1	*M2/1	*M2/1	*M2/1	*M2/1
*met(C2)	*met(C2)	*met(C2)	*met(C2)	*met(C2)
!!section: Qui tollis
!!!OMD: Qui tollis
0r	0D	0r	0r	0r
=46.	=46.	=46.	=46.	=46.
0r	1D	0r	0r	0r
.	1C	.	.	.
=47	=47	=47	=47	=47
0r	1.F	0D	0r	0r
.	2D\	.	.	.
=48.	=48.	=48.	=48.	=48.
0r	1F	1D	0r	0r
.	1G	1C	.	.
=49	=49	=49	=49	=49
0D	1.A	1.F	0r	0r
.	2G\	2D/	.	.
=50.	=50.	=50.	=50.	=50.
1D	2F\	1F	0r	0r
.	4E\	.	.	.
.	4D\	.	.	.
1C	1E	1G	.	.
=51	=51	=51	=51	=51
1.F	2.D\	2.A/	0r	0r
.	4E\	4G/	.	.
.	2F\	2A/	.	.
2E\	[2G\	[2B\	.	.
=52.	=52.	=52.	=52.	=52.
2D\	4G\]	4B\]	0r	0r
.	4F\	4A/	.	.
2C/	1E	1A	.	.
1BB	.	.	.	.
.	2D\	2G#i/	.	.
=53	=53	=53	=53	=53
1AA	2E\	1A	0r	0r
.	2A\	.	.	.
1r	2G\	1E	.	.
.	4F\	.	.	.
.	4E\	.	.	.
=54.	=54.	=54.	=54.	=54.
2r	1F	1r	0r	0r
2D\	.	.	.	.
2C/	1E	2r	.	.
4BB/	.	2A/	.	.
4AA/	.	.	.	.
=55	=55	=55	=55	=55
1BB	1r	2G/	0r	0r
.	.	4F/	.	.
.	.	4E/	.	.
1AA	2r	1F	.	.
.	2A\	.	.	.
=56.	=56.	=56.	=56.	=56.
1r	2G\	1E	0r	1r
.	4F\	.	.	.
.	4E\	.	.	.
2r	1F	1r	.	1A
2D\	.	.	.	.
=57	=57	=57	=57	=57
2C/	2E\	0r	0r	1A
4BB/	1E	.	.	.
4AA/	.	.	.	.
1BB	.	.	.	1G
.	2D\	.	.	.
=58.	=58.	=58.	=58.	=58.
1AA	1E	2r	0r	1.c
.	.	2A/	.	.
2r	1r	2G/	.	.
2D\	.	4F/	.	2A/
.	.	4E/	.	.
=59	=59	=59	=59	=59
2C/	2r	4F/	0r	1c
.	.	4E/	.	.
4BB/	2E\	2G/	.	.
4AA/	.	.	.	.
2BB/	4D\	2.G/	.	1d
.	4C/	.	.	.
[2GG/	4BB/	.	.	.
.	4AA/	4F/	.	.
=60.	=60.	=60.	=60.	=60.
4GG/]	2BB/	4E/	0r	0e
4FF/	.	4D/	.	.
4EE/	1AA	1D	.	.
4DD/	.	.	.	.
1EE	.	.	.	.
.	2GG/	2C#i/	.	.
=61	=61	=61	=61	=61
0DD	0AA	0D	1r	1.A
.	.	.	1D	.
.	.	.	.	2G/
=62.	=62.	=62.	=62.	=62.
0r	0r	0r	1D	2F/
.	.	.	.	4E/
.	.	.	.	4D/
.	.	.	1C	1E
=63	=63	=63	=63	=63
0r	0r	0r	1.F	1D
.	.	.	.	2r
.	.	.	2D/	2d\
=64.	=64.	=64.	=64.	=64.
0r	0r	0r	1F	2c\
.	.	.	.	4B\
.	.	.	.	4A/
.	.	.	1G	1B
=65	=65	=65	=65	=65
0r	0r	0r	1A	2A/
.	.	.	.	2a\
.	.	.	2r	2g\
.	.	.	2A/	4f\
.	.	.	.	4e\
=66.	=66.	=66.	=66.	=66.
0r	0r	0r	2G/	4f\
.	.	.	.	4e\
.	.	.	4F/	1e
.	.	.	4E/	.
.	.	.	1F	.
.	.	.	.	2d\
=67	=67	=67	=67	=67
0AA	2r	[0C	1E	1e
.	1A	.	.	.
.	.	.	2r	[1e
.	2A\	.	[2A/	.
=68.	=68.	=68.	=68.	=68.
1AA	1E	1C]	2A/]	1e]
.	.	.	2A/	.
[1AA	2r	1C	1E	1e
.	[2A\	.	.	.
=69	=69	=69	=69	=69
1AA]	2A\]	0C	2r	0e
.	2A\	.	1A	.
1AA	2E\	.	.	.
.	2A\	.	2A/	.
=70.	=70.	=70.	=70.	=70.
1C	2G\	1C	1E	1e
.	1E	.	.	.
1AA	.	1C	2r	1e
.	4D\	.	2A/	.
.	4C/	.	.	.
=71	=71	=71	=71	=71
1.EE	0BB	1E	2G/	1.g
.	.	.	1E	.
.	.	[1G	.	.
2FF/	.	.	4D/	4f\
.	.	.	4C/	4e\
=72.	=72.	=72.	=72.	=72.
0GG	1.BB	2G/]	1BB	1.d
.	.	4F/	.	.
.	.	4E/	.	.
.	.	[1D	1G	.
.	2C/	.	.	2e\
=73	=73	=73	=73	=73
1.DD	1.D	2D/]	1.F	1.f
.	.	2E/	.	.
.	.	[1F	.	.
2EE/	4C/	.	2G/	4e\
.	4BB/	.	.	4d\
=74.	=74.	=74.	=74.	=74.
2.FF/	0AA	2F/]	0A	2c\
.	.	4E/	.	2B\
4GG/	.	4D/	.	.
2AA/	.	2C/	.	2A/
2BB/	.	2D/	.	2f\
=75	=75	=75	=75	=75
2C/	0r	2E/	0A	2e\
2D\	.	2F/	.	1d
1AA	.	1E	.	.
.	.	.	.	2c#i\
=76.	=76.	=76.	=76.	=76.
0DD	0r	0D	1r	0d
.	.	.	1A	.
=77	=77	=77	=77	=77
[0AA	0r	0r	1.A	1r
.	.	.	.	1e
.	.	.	4G/	.
.	.	.	4F/	.
=78.	=78.	=78.	=78.	=78.
0AA]	0r	0r	1E	1.e
.	.	.	1A	.
.	.	.	.	4d\
.	.	.	.	4c\
=79	=79	=79	=79	=79
0r	0r	0r	1G	1B
.	.	.	1c	1e
=80.	=80.	=80.	=80.	=80.
0r	0r	0r	2B\	1d
.	.	.	2.G/	.
.	.	.	.	1g
.	.	.	4A/	.
.	.	.	4B\	.
.	.	.	4G/	.
=81	=81	=81	=81	=81
0r	0r	0r	2A/	2f\
.	.	.	4G/	2.e\
.	.	.	4F/	.
.	.	.	1E	.
.	.	.	.	4f\
.	.	.	.	4g\
.	.	.	.	4e\
=82.	=82.	=82.	=82.	=82.
0r	0r	0r	2r	4f\
.	.	.	.	4e\
.	.	.	2A/	4d\
.	.	.	.	4c\
.	.	.	2A/	1B
.	.	.	2G/	.
=83	=83	=83	=83	=83
0r	0r	0r	2A/	2c\
.	.	.	2.c\	2A/
.	.	.	.	2r
.	.	.	4B\	.
.	.	.	4A/	2e\
.	.	.	4G/	.
=84.	=84.	=84.	=84.	=84.
0r	0r	0r	2A/	2e\
.	.	.	4G/	2d\
.	.	.	4F/	.
.	.	.	1E	2e\
.	.	.	.	[2g\
=85	=85	=85	=85	=85
0r	0r	0r	1E	4g\]
.	.	.	.	4f\
.	.	.	.	4e\
.	.	.	.	4d\
.	.	.	2r	2e\
.	.	.	2E/	4d\
.	.	.	.	4c\
=86.	=86.	=86.	=86.	=86.
0r	0r	0r	2E/	2B\
.	.	.	1G	2B\
.	.	.	.	2B\
.	.	.	4F/	[2d\
.	.	.	4E/	.
=87	=87	=87	=87	=87
0r	0r	0r	4D/	2d\]
.	.	.	4E/	.
.	.	.	4F/	4c\
.	.	.	4G/	4B\
.	.	.	2A/	4A/
.	.	.	.	4B\
.	.	.	4G/	4c\
.	.	.	4F/	4d\
=88.	=88.	=88.	=88.	=88.
0r	0r	0r	2E/	2e\
.	.	.	1A	4d\
.	.	.	.	4c\
.	.	.	.	1B
.	.	.	2G#i/	.
=89	=89	=89	=89	=89
1.AA	1r	1r	0A	0A
.	2.AA/	[1A	.	.
2AA/	.	.	.	.
.	4BB/	.	.	.
=90.	=90.	=90.	=90.	=90.
1AA	2C/	2A/]	0r	0r
.	2D\	2A/	.	.
1AA	2E\	[1A	.	.
.	[2F\	.	.	.
=91	=91	=91	=91	=91
1FF	2F\]	1A]	0r	0r
.	1D	.	.	.
1GG	.	1B	.	.
.	[2G\	.	.	.
=92.	=92.	=92.	=92.	=92.
0EE	2G\]	1G	0r	0r
.	2F\	.	.	.
.	2E\	1G	.	.
.	2D\	.	.	.
=93	=93	=93	=93	=93
0FF	2C/	1.A	0r	0r
.	2BB/	.	.	.
.	1AA	.	.	.
.	.	2G/	.	.
=94.	=94.	=94.	=94.	=94.
0DD	1.A	2F/	0r	0r
.	.	2E/	.	.
.	.	[1D	.	.
.	2G\	.	.	.
=95	=95	=95	=95	=95
1.D	2F\	1D]	0r	0r
.	2E\	.	.	.
.	[1D	1F	.	.
2C/	.	.	.	.
=96.	=96.	=96.	=96.	=96.
2BB/	1D]	1F	0r	0r
2AA/	.	.	.	.
2GG/	[1G	[1E	.	.
2FF/	.	.	.	.
=97	=97	=97	=97	=97
0EE	2G\]	2E/]	0r	0r
.	2F\	4D/	.	.
.	.	4C/	.	.
.	2E\	2BB/	.	.
.	2D\	[2G/	.	.
=98.	=98.	=98.	=98.	=98.
1EE	2C/	2G/]	0r	0r
.	4BB/	1G	.	.
.	4AA/	.	.	.
1EE	2BB/	.	.	.
.	2C/	2F/	.	.
=99	=99	=99	=99	=99
[0EE	2BB/	2E/	0r	0r
.	2.G\	4D/	.	.
.	.	4C/	.	.
.	.	2BB/	.	.
.	4F\	.	.	.
.	[2E\	2G/	.	.
=100.	=100.	=100.	=100.	=100.
0EE]	2E\]	2E/	0r	0r
.	4D\	1A	.	.
.	4C/	.	.	.
.	1BB	.	.	.
.	.	2G#i/	.	.
=101	=101	=101	=101	=101
0AA	0AA	0A	1r	1r
.	.	.	1A	2.A/
.	.	.	.	4B\
=102.	=102.	=102.	=102.	=102.
0r	0r	0r	1A	2c\
.	.	.	.	2d\
.	.	.	1A	2e\
.	.	.	.	[2f\
=103	=103	=103	=103	=103
0r	0r	0r	1B	2f\]
.	.	.	.	1d
.	.	.	1G	.
.	.	.	.	[2g\
=104.	=104.	=104.	=104.	=104.
0r	0r	0r	1.c	2g\]
.	.	.	.	2f\
.	.	.	.	2e\
.	.	.	2B\	2d\
=105	=105	=105	=105	=105
0r	0r	0r	2A/	2c\
.	.	.	2G/	2B\
.	.	.	2F/	2A/
.	.	.	2E/	2e\
=106.	=106.	=106.	=106.	=106.
0r	0r	0r	2D/	2.f\
.	.	.	2A/	.
.	.	.	.	4e\
.	.	.	2B-i\	4d\
.	.	.	.	4c\
.	.	.	[2A/	2f\
=107	=107	=107	=107	=107
0r	0r	0r	4A/]	2e\
.	.	.	4G/	.
.	.	.	2F/	2.d\
.	.	.	1E	.
.	.	.	.	4c#i\
.	.	.	.	2c#i\
=108.	=108.	=108.	=108.	=108.
0r	0r	0r	0D	0d
=109	=109	=109	=109	=109
*M3/1	*M3/1	*M3/1	*M3/1	*M3/1
*met(3)	*met(3)	*met(3)	*met(3)	*met(3)
0AA	0.r	1.E	0.r	0.r
.	.	2F/	.	.
1BB-i	.	1G	.	.
=110.	=110.	=110.	=110.	=110.
0AA	1.C	0A	0.r	0.r
.	2D\	.	.	.
1AA	1E	[1A	.	.
=111	=111	=111	=111	=111
1FF	0F	1A]	0.r	0.r
0C	.	0G	.	.
.	1E	.	.	.
=112.	=112.	=112.	=112.	=112.
2FF/	0A	1F	0.r	0.r
2GG/	.	.	.	.
2AA/	.	2C/	.	.
2BB/	.	2D/	.	.
1C	[1A	1E	.	.
=113	=113	=113	=113	=113
1FF	1A]	1.F	0.r	0.r
0C	0G	.	.	.
.	.	2E/	.	.
.	.	1E	.	.
=114.	=114.	=114.	=114.	=114.
[0.FF	1.F	[0.F	1A	0.r
.	.	.	1A	.
.	2E\	.	.	.
.	1D	.	1A	.
=115	=115	=115	=115	=115
0.FF_	[0.C	0.F]	1.c	1A
.	.	.	.	1A
.	.	.	2B\	.
.	.	.	2A/	1A
.	.	.	2G/	.
=116.	=116.	=116.	=116.	=116.
0.FF_	0.C]	0.r	0F	1.c
.	.	.	.	2B\
.	.	.	1r	2A/
.	.	.	.	2G/
=117	=117	=117	=117	=117
0.FF]	0.C	0.r	1A	0F
.	.	.	1A	.
.	.	.	1A	1r
=118.	=118.	=118.	=118.	=118.
0.r	0.r	0.r	1.c	2A/
.	.	.	.	2B\
.	.	.	.	2c\
.	.	.	2B\	2d\
.	.	.	2A/	1e
.	.	.	2G/	.
=119	=119	=119	=119	=119
0.r	0.r	0.r	1F	1.f
.	.	.	0G	.
.	.	.	.	2e\
.	.	.	.	1e
=120.	=120.	=120.	=120.	=120.
0.r	0.r	0.r	0F	0f
.	.	.	1r	1r
=121	=121	=121	=121	=121
1C	1E	1.C	1c	1.e
1C	1E	.	1c	.
.	.	2D/	.	2f\
1C	1E	1E	1c	1g
=122.	=122.	=122.	=122.	=122.
0FF	0AA	1.F	0c	1.a
.	.	2E/	.	2g\
1r	1r	1D	1r	1f
=123	=123	=123	=123	=123
1AA	0E	0C	1.c	0e
1AA	.	.	.	.
.	.	.	2B\	.
1AA	[1E	1r	1A	1r
=124.	=124.	=124.	=124.	=124.
1.C	1E]	1.E	0G	1.c
.	0C	.	.	.
2BB/	.	2F/	.	2d\
2AA/	.	1G	[1c	1e
2GG/	.	.	.	.
=125	=125	=125	=125	=125
1FF	1.C	1A	1c]	1.f
0C	.	0G	0c	.
.	2D\	.	.	2e\
.	1E	.	.	1e
=126.	=126.	=126.	=126.	=126.
1FF	0C	0.F	1A	0f
1.FF	.	.	1.A	.
.	1C	.	.	1f
2GG/	.	.	2B\	.
=127	=127	=127	=127	=127
1AA	1C	0.r	1c	1e
1GG	1D	.	1.B	1.g
[1EE	[1E	.	.	.
.	.	.	2A/	2f\
=128.	=128.	=128.	=128.	=128.
0.EE]	0.E]	0.r	0A	1.e
.	.	.	.	4d\
.	.	.	.	4c\
.	.	.	1G#i	1B
=129	=129	=129	=129	=129
1.AA	1.C	0A	0A	0A
4GG/	2D\	.	.	.
4FF/	.	.	.	.
1EE	1E	1G	1r	1e
=130.	=130.	=130.	=130.	=130.
0DD	0.AA	1A	0.r	1f
.	.	0F	.	1.d
1DD	.	.	.	.
.	.	.	.	2e\
=131	=131	=131	=131	=131
1.AA	1r	1.E	1A	0e
.	1r	.	1E	.
2GG/	.	2D/	.	.
1FF	1AA	1D	1F	1a
=132.	=132.	=132.	=132.	=132.
1EE	1BB	0E	1G	1g
0AA	1.C	.	0A	1.e
.	.	1A	.	.
.	2BB/	.	.	2d\
=133	=133	=133	=133	=133
2DD/	0D	1.A	2F/	1.f
2EE/	.	.	2G/	.
2FF/	.	.	2A/	.
2GG/	.	2G/	2B-i\	2e\
1AA	1C	1F	1A	2e\
.	.	.	.	2d\
=134.	=134.	=134.	=134.	=134.
1BB-i	1D	1D	1G	0d
0AA	1AA	0E	0A	.
.	1E	.	.	1c#i
=135	=135	=135	=135	=135
0DD	1F	[0.Dl	0A	[0.dl
.	1.F	.	.	.
[1DDl	.	.	1F	.
.	2E\	.	.	.
=136.	=136.	=136.	=136.	=136.
0.DD_	2D\	0.D_	[0.Fl	0.d_
.	2C/	.	.	.
.	1BB-i	.	.	.
.	1AA	.	.	.
=137	=137	=137	=137	=137
0.DD]	0.AAl	0.D]	0.F]	0.d]
==	==	==	==	==
*-	*-	*-	*-	*-
!!!RDF**kern: l=long note in original notation
!!!RDF**kern: i=editorial accidental
!!!RDF**kern: V=start of tuplet marker
!!!RDF**kern: Z=end of tuplet marker
!!!ENC:	Chris Gage 01-03-2013
!!!END:	2013/07/20/
!!!EED:	Jesse Rodin
!!!EEV:	2013/08/02/
!!!ONB:	Translated from MusicXML and edited on 2013/08/02/ by Craig Sapp
!!muse2ps: T^@{OPR}^u^@{ONM}{. }@{OTL}^C^@{COM}^i2I150v85,85,85,85,130Q16
